X:3625
T:Les cinq noisettes
O:england
C:MCTB 2/34
M:3/8
L:1/8
K:C
G|c2d/e/|B/d/fe|ded|\
c2d/e/|B/d/fe|d2:|
|:G|c2d/e/|B/d/cB|A>BG|\
c2d/e/|B/d/cB|c2:|
